neru-light-classic/32x32/apps/disk-burner.svg

<?xml version="1.0" encoding="UTF-8" standalone="no"?>
<svg
   xmlns:dc="http://purl.org/dc/elements/1.1/"
   xmlns:cc="http://creativecommons.org/ns#"
   xmlns:rdf="http://www.w3.org/1999/02/22-rdf-syntax-ns#"
   xmlns:svg="http://www.w3.org/2000/svg"
   xmlns="http://www.w3.org/2000/svg"
   xmlns:sodipodi="http://sodipodi.sourceforge.net/DTD/sodipodi-0.dtd"
   xmlns:inkscape="http://www.inkscape.org/namespaces/inkscape"
   height="32"
   width="32"
   version="1"
   id="svg16"
   sodipodi:docname="GnomeBaker.svg"
   inkscape:version="0.92.2 2405546, 2018-03-11">
  <metadata
     id="metadata22">
    <rdf:RDF>
      <cc:Work
         rdf:about="">
        <dc:format>image/svg+xml</dc:format>
        <dc:type
           rdf:resource="http://purl.org/dc/dcmitype/StillImage" />
      </cc:Work>
    </rdf:RDF>
  </metadata>
  <defs
     id="defs20" />
  <sodipodi:namedview
     pagecolor="#ffffff"
     bordercolor="#666666"
     borderopacity="1"
     objecttolerance="10"
     gridtolerance="10"
     guidetolerance="10"
     inkscape:pageopacity="0"
     inkscape:pageshadow="2"
     inkscape:window-width="1680"
     inkscape:window-height="972"
     id="namedview18"
     showgrid="false"
     inkscape:zoom="10.429825"
     inkscape:cx="14.118618"
     inkscape:cy="-4.5995536"
     inkscape:window-x="0"
     inkscape:window-y="0"
     inkscape:window-maximized="1"
     inkscape:current-layer="svg16" />
  <path
     style="opacity:1;fill:#c94d48;fill-opacity:1;fill-rule:evenodd;stroke:none;stroke-width:1.03534329;stroke-linecap:round;stroke-linejoin:bevel;stroke-miterlimit:4;stroke-dasharray:none;stroke-dashoffset:0;stroke-opacity:1"
     d="M 7.6777344 1.6953125 C 4.5890836 1.6953125 2.1015625 4.1808804 2.1015625 7.2695312 L 2.1015625 24.322266 C 2.1015625 25.503726 2.5477376 26.537712 3.1699219 27.4375 C 3.5641895 26.298173 3.8575026 24.975983 3.8574219 23.123047 C 3.8573375 21.187988 3.5619586 18.718896 2.8027344 15.410156 C 3.6403471 15.841605 4.4022256 16.380097 5.0859375 17.003906 C 5.7696494 17.627716 6.3749086 18.337846 6.8964844 19.111328 C 7.4180602 19.88481 7.8577799 20.721096 8.2089844 21.601562 C 8.5601889 22.482029 8.8234957 23.404846 8.9960938 24.349609 C 8.9960937 24.349609 9.3783908 24.162898 9.6328125 23.4375 C 9.7600234 23.074801 9.8557365 22.578254 9.8554688 21.902344 C 9.855201 21.226434 9.7590419 20.37195 9.5039062 19.294922 C 10.133095 20.691004 11.194141 22.010739 12.132812 23.017578 C 13.071484 24.024417 13.886325 24.717766 14.027344 24.861328 C 14.242698 24.196066 14.59749 23.688007 14.980469 23.261719 C 15.363448 22.835431 15.77447 22.491153 16.107422 22.15625 C 16.440374 21.821347 16.694493 21.494623 16.759766 21.103516 C 16.825038 20.712408 16.703263 20.257011 16.283203 19.662109 C 17.630376 19.971589 18.652171 20.397731 19.433594 20.867188 C 20.215016 21.336644 20.754973 21.849349 21.136719 22.333984 C 21.90021 23.303255 22.030187 24.15911 22.191406 24.320312 C 22.567001 22.335477 22.886795 21.796578 22.980469 21.25 C 23.074142 20.703422 22.942523 20.14913 22.417969 18.132812 C 23.488211 20.084557 24.215864 21.044051 24.671875 21.302734 C 24.899881 21.432076 25.059741 21.386909 25.160156 21.201172 C 25.260571 21.015435 25.302833 20.69041 25.292969 20.261719 C 25.27324 19.404336 25.050336 18.132783 24.693359 16.736328 C 24.336383 15.339874 23.844795 13.817517 23.289062 12.458984 C 24.817391 13.763065 26.014931 14.80066 26.925781 15.695312 C 27.836631 16.589965 28.461209 17.341242 28.84375 18.076172 C 29.226291 18.811102 29.367144 19.528603 29.310547 20.353516 C 29.25395 21.178428 28.998362 22.11079 28.591797 23.275391 C 29.60796 22.059319 29.830026 21.755651 30.304688 21.101562 L 30.304688 7.2695312 C 30.304688 4.1808804 27.81912 1.6953125 24.730469 1.6953125 L 7.6777344 1.6953125 z "
     id="rect4497" />
  <text
     xml:space="preserve"
     style="font-style:normal;font-weight:normal;font-size:40px;line-height:1.25;font-family:sans-serif;letter-spacing:0px;word-spacing:0px;fill:#000000;fill-opacity:1;stroke:none"
     x="-171.04793"
     y="-91.10849"
     id="text4512"><tspan
       sodipodi:role="line"
       id="tspan4510"
       x="-171.04793"
       y="-55.717865"
       style="font-style:normal;font-variant:normal;font-weight:normal;font-stretch:normal;font-family:Utopia;-inkscape-font-specification:Utopia" /></text>
  <g
     id="g4652"
     transform="translate(38.166591,1.9280516)">
    <text
       transform="scale(1.0010502,0.99895091)"
       id="text4522"
       y="25.977591"
       x="19.676229"
       style="font-style:normal;font-weight:normal;font-size:11.68568802px;line-height:1.25;font-family:sans-serif;letter-spacing:0px;word-spacing:0px;fill:#ffffff;fill-opacity:1;stroke:#ffffff;stroke-width:0.40000001;stroke-linecap:round;stroke-miterlimit:4;stroke-dasharray:none;stroke-opacity:1"
       xml:space="preserve"><tspan
         style="fill:#ffffff;stroke:#ffffff;stroke-width:0.40000001;stroke-linecap:round;stroke-miterlimit:4;stroke-dasharray:none;stroke-opacity:1"
         y="25.977591"
         x="19.676229"
         id="tspan4520"
         sodipodi:role="line">B</tspan></text>
    <path
       inkscape:connector-curvature="0"
       id="path4524"
       d="m 8.0142103,18.070635 v 7.140878"
       style="fill:#ffffff;stroke:#ffffff;stroke-width:1.70000005;stroke-linecap:round;stroke-linejoin:miter;stroke-miterlimit:4;stroke-dasharray:none;stroke-opacity:1" />
    <path
       inkscape:connector-curvature="0"
       id="path4524-2"
       d="m 16.392021,18.070635 v 7.140878"
       style="fill:#ffffff;stroke:#ffffff;stroke-width:1.70000005;stroke-linecap:round;stroke-linejoin:miter;stroke-miterlimit:4;stroke-dasharray:none;stroke-opacity:1" />
    <path
       inkscape:connector-curvature="0"
       id="path4524-2-8"
       d="m 12.264603,18.070635 v 7.140878"
       style="fill:#ffffff;stroke:#ffffff;stroke-width:1.70000005;stroke-linecap:round;stroke-linejoin:miter;stroke-miterlimit:4;stroke-dasharray:none;stroke-opacity:1" />
    <path
       inkscape:connector-curvature="0"
       id="path4524-2-0"
       d="M 16.49587,6.9199486 12.271823,11.151579"
       style="fill:#ffffff;stroke:#ffffff;stroke-width:1.70000005;stroke-linecap:round;stroke-linejoin:miter;stroke-miterlimit:4;stroke-dasharray:none;stroke-opacity:1" />
    <path
       inkscape:connector-curvature="0"
       id="path4524-2-0-3-7"
       d="M 16.512054,13.459284 8.3454182,13.320176"
       style="fill:#ffffff;stroke:#ffffff;stroke-width:1.70000005;stroke-linecap:round;stroke-linejoin:miter;stroke-miterlimit:4;stroke-dasharray:none;stroke-opacity:1" />
    <path
       inkscape:connector-curvature="0"
       id="path4524-2-0-0"
       d="M 8.1244818,7.3447444 14.013719,13.244552"
       style="fill:#ffffff;stroke:#ffffff;stroke-width:1.70000005;stroke-linecap:round;stroke-linejoin:miter;stroke-miterlimit:4;stroke-dasharray:none;stroke-opacity:1" />
    <rect
       ry="1.2327229"
       y="6.5991111"
       x="19.308056"
       height="8.0579605"
       width="8.5166712"
       id="rect4616"
       style="opacity:1;fill:#ffffff;fill-opacity:1;fill-rule:evenodd;stroke:none;stroke-width:10;stroke-linecap:round;stroke-linejoin:bevel;stroke-miterlimit:4;stroke-dasharray:none;stroke-dashoffset:0;stroke-opacity:1" />
  </g>
  <path
     style="opacity:1;fill:#858585;fill-opacity:1;stroke-width:0.74818403"
     d="M 16,10.38862 A 5.6113801,5.6113801 0 0 0 10.38862,16 5.6113801,5.6113801 0 0 0 16,21.61138 5.6113801,5.6113801 0 0 0 21.61138,16 5.6113801,5.6113801 0 0 0 16,10.38862 Z m 0,3.366828 c 1.239666,0 2.244552,1.004886 2.244552,2.244552 0,1.239666 -1.004886,2.244552 -2.244552,2.244552 -1.239666,0 -2.244552,-1.004886 -2.244552,-2.244552 0,-1.239666 1.004886,-2.244552 2.244552,-2.244552 z"
     id="path4-36"
     inkscape:connector-curvature="0" />
  <path
     d="M 16,5.5254241 C 10.197085,5.5254241 5.5254238,10.197085 5.5254238,16 5.5254238,21.802915 10.197085,26.474576 16,26.474576 21.802915,26.474576 26.474576,21.802915 26.474576,16 26.474576,10.197085 21.802915,5.5254241 16,5.5254241 Z m 0,5.9854719 A 4.4891041,4.4891041 0 0 1 20.489104,16 4.4891041,4.4891041 0 0 1 16,20.489104 4.4891041,4.4891041 0 0 1 11.510896,16 4.4891041,4.4891041 0 0 1 16,11.510896 Z"
     style="fill:#e6e6e6;stroke-width:0.74818403"
     id="path6-7"
     inkscape:connector-curvature="0" />
  <path
     style="opacity:1;fill:#ffffff;fill-opacity:1;stroke-width:0.40468118"
     d="m 16,12.964891 c -1.676244,0 -3.035109,1.358865 -3.035109,3.035109 0,1.676244 1.358865,3.035109 3.035109,3.035109 1.676244,0 3.035109,-1.358865 3.035109,-3.035109 0,-1.676244 -1.358865,-3.035109 -3.035109,-3.035109 z"
     id="path4-3"
     inkscape:connector-curvature="0"
     sodipodi:nodetypes="sssss" />
  <path
     style="opacity:1;fill:#ffb84b;fill-opacity:1;fill-rule:evenodd;stroke:none;stroke-width:1.03534329;stroke-linecap:round;stroke-linejoin:bevel;stroke-miterlimit:4;stroke-dasharray:none;stroke-dashoffset:0;stroke-opacity:1"
     d="M 30.304688 21.101562 C 29.830026 21.755651 29.60796 22.059319 28.591797 23.275391 C 28.998362 22.11079 29.25395 21.178428 29.310547 20.353516 C 29.367144 19.528603 29.226291 18.811102 28.84375 18.076172 C 28.461209 17.341242 27.836631 16.589965 26.925781 15.695312 C 26.014931 14.80066 24.817391 13.763065 23.289062 12.458984 C 23.844795 13.817517 24.336383 15.339874 24.693359 16.736328 C 25.050336 18.132783 25.27324 19.404336 25.292969 20.261719 C 25.302833 20.69041 25.260571 21.015435 25.160156 21.201172 C 25.059741 21.386909 24.899881 21.432076 24.671875 21.302734 C 24.215864 21.044051 23.488211 20.084557 22.417969 18.132812 C 22.942523 20.14913 23.074142 20.703422 22.980469 21.25 C 22.886795 21.796578 22.567001 22.335477 22.191406 24.320312 C 22.030187 24.15911 21.90021 23.303255 21.136719 22.333984 C 20.754973 21.849349 20.215016 21.336644 19.433594 20.867188 C 18.652171 20.397731 17.630376 19.971589 16.283203 19.662109 C 16.703263 20.257011 16.825038 20.712408 16.759766 21.103516 C 16.694493 21.494623 16.440374 21.821347 16.107422 22.15625 C 15.77447 22.491153 15.363448 22.835431 14.980469 23.261719 C 14.59749 23.688007 14.242698 24.196066 14.027344 24.861328 C 13.886325 24.717766 13.071484 24.024417 12.132812 23.017578 C 11.194141 22.010739 10.133095 20.691004 9.5039062 19.294922 C 9.7590419 20.37195 9.855201 21.226434 9.8554688 21.902344 C 9.8557365 22.578254 9.7600234 23.074801 9.6328125 23.4375 C 9.3783908 24.162898 8.9960937 24.349609 8.9960938 24.349609 C 8.8234957 23.404846 8.5601889 22.482029 8.2089844 21.601562 C 7.8577799 20.721096 7.4180602 19.88481 6.8964844 19.111328 C 6.3749086 18.337846 5.7696494 17.627716 5.0859375 17.003906 C 4.4022256 16.380097 3.6403471 15.841605 2.8027344 15.410156 C 3.5619586 18.718896 3.8573375 21.187988 3.8574219 23.123047 C 3.8575026 24.975983 3.5641895 26.298173 3.1699219 27.4375 C 4.1742919 28.889996 5.7705442 29.898438 7.6777344 29.898438 L 24.730469 29.898438 C 27.81912 29.898438 30.304688 27.410916 30.304688 24.322266 L 30.304688 21.101562 z "
     id="path4547" />
</svg>

<svg xmlns="http://www.w3.org/2000/svg" height="32" width="32" version="1"><path d="M7.678 1.695A5.563 5.563 0 0 0 2.102 7.27v17.052c0 1.182.446 2.216 1.068 3.116.394-1.14.688-2.462.687-4.315 0-1.935-.295-4.404-1.054-7.713.837.432 1.6.97 2.283 1.594a11.71 11.71 0 0 1 1.81 2.107c.522.774.962 1.61 1.313 2.49.351.881.614 1.804.787 2.749 0 0 .382-.187.637-.913.127-.362.223-.859.222-1.535 0-.676-.096-1.53-.351-2.607.63 1.396 1.69 2.716 2.629 3.723.938 1.006 1.753 1.7 1.894 1.843.216-.665.57-1.173.953-1.6.383-.426.794-.77 1.127-1.105.333-.335.587-.661.653-1.052.065-.392-.057-.847-.477-1.442 1.347.31 2.37.736 3.15 1.205.782.47 1.322.982 1.704 1.467.763.97.893 1.825 1.054 1.986.376-1.985.696-2.523.79-3.07.093-.547-.038-1.1-.563-3.117 1.07 1.952 1.798 2.911 2.254 3.17.228.13.388.084.488-.102.1-.186.143-.51.133-.94-.02-.857-.243-2.128-.6-3.525a33.704 33.704 0 0 0-1.404-4.277c1.528 1.304 2.726 2.342 3.637 3.236.91.895 1.535 1.646 1.918 2.381.382.735.523 1.453.467 2.278-.057.824-.313 1.757-.72 2.921 1.017-1.216 1.239-1.52 1.714-2.173V7.27a5.561 5.561 0 0 0-5.575-5.575H7.678z" fill="#c94d48" fill-rule="evenodd"/><text style="line-height:1.25" x="-171.048" y="-91.108" font-weight="400" font-size="40" font-family="sans-serif" letter-spacing="0" word-spacing="0"/><g transform="translate(38.167 1.928)" fill="#fff"><text transform="scale(1.00105 .99895)" y="25.978" x="19.676" style="line-height:1.25" font-weight="400" font-size="11.686" font-family="sans-serif" letter-spacing="0" word-spacing="0" stroke="#fff" stroke-width=".4" stroke-linecap="round"><tspan y="25.978" x="19.676">B</tspan></text><path d="M8.014 18.07v7.142M16.392 18.07v7.142M12.265 18.07v7.142M16.496 6.92l-4.224 4.232M16.512 13.46l-8.167-.14M8.124 7.345l5.89 5.9" stroke="#fff" stroke-width="1.7" stroke-linecap="round"/><rect ry="1.233" y="6.599" x="19.308" height="8.058" width="8.517" fill-rule="evenodd"/></g><path d="M16 10.389A5.611 5.611 0 0 0 10.389 16 5.611 5.611 0 0 0 16 21.611 5.611 5.611 0 0 0 21.611 16 5.611 5.611 0 0 0 16 10.389zm0 3.366a2.245 2.245 0 1 1 0 4.49 2.245 2.245 0 0 1 0-4.49z" fill="#858585"/><path d="M16 5.525A10.452 10.452 0 0 0 5.525 16 10.452 10.452 0 0 0 16 26.475 10.452 10.452 0 0 0 26.475 16 10.452 10.452 0 0 0 16 5.525zm0 5.986A4.49 4.49 0 0 1 20.49 16 4.49 4.49 0 0 1 16 20.49 4.49 4.49 0 0 1 11.51 16 4.49 4.49 0 0 1 16 11.51z" fill="#e6e6e6"/><path d="M16 12.965a3.035 3.035 0 1 0 0 6.07 3.035 3.035 0 0 0 0-6.07z" fill="#fff"/><path d="M30.305 21.102c-.475.654-.697.957-1.713 2.173.406-1.164.662-2.097.719-2.921a4.103 4.103 0 0 0-.467-2.278c-.383-.735-1.007-1.486-1.918-2.38-.911-.895-2.109-1.933-3.637-3.237a33.704 33.704 0 0 1 1.404 4.277c.357 1.397.58 2.668.6 3.526.01.428-.032.753-.133.94-.1.185-.26.23-.488.1-.456-.258-1.184-1.217-2.254-3.17.525 2.017.656 2.571.562 3.118-.093.547-.413 1.085-.789 3.07-.16-.16-.29-1.017-1.054-1.986-.382-.485-.922-.997-1.703-1.467-.782-.47-1.804-.895-3.15-1.205.42.595.541 1.05.476 1.442-.066.39-.32.717-.653 1.052-.333.335-.744.68-1.127 1.106-.383.426-.737.934-.953 1.6-.14-.144-.956-.838-1.894-1.844-.939-1.007-2-2.327-2.63-3.723.256 1.077.352 1.931.352 2.607 0 .676-.095 1.173-.222 1.535-.255.726-.637.913-.637.913a14.416 14.416 0 0 0-.787-2.748c-.351-.88-.79-1.717-1.313-2.49a11.71 11.71 0 0 0-1.81-2.108 10.559 10.559 0 0 0-2.283-1.594c.759 3.309 1.054 5.778 1.054 7.713 0 1.853-.293 3.175-.687 4.314 1.004 1.453 2.6 2.461 4.508 2.461H24.73a5.563 5.563 0 0 0 5.575-5.576v-3.22z" fill="#ffb84b" fill-rule="evenodd"/></svg>
